X:1
T:Radix Jesse - Handl
T:#
%%score 1 2 3
L:1/8
Q:1/4=200
M:none
K:F
V:1 treble nm="Soprano" snm="S"
V:2 treble nm="Alto" snm="A"
V:3 treble-8 nm="Tenor" snm="T"
V:1
"^Radix Jesse""^Jacob Handl\n (1550-91)" (D6 E2 F2 E2 F2 G2 | A2 G2 F4) E4 A4 | %2
w: Ra\- * * * * *|* * * dix Jes-|
 G4 (E2 F2 G2 A2 =B2 A2 | =B2 c2 d4) A4 (A2 G2 | F2 G2 A6 G2 G4-) |[M:4/2] (G2 F2 F8 E4) | %6
w: se, ra\- * * * * *|* * * dix Jes\- *|||
 F8 z4 D4- | D4 E4 F4 G4 | A6 =B2 ^c4 d4 | (e2 d2 d6 ^c2 c4) | d8 z8 | z4 A4 G2 G4 F2 | %12
w: se, qui|* ex- ur- get|ju- di- ca- re|gen\- * * * *|tes,|ju- di- ca- re|
 (D2 E2 F2 G2 A8) | A4 A8 c4 | c4 G8 G4 | B4 (A6 ^G2 G4) | A12 F4 | B4 G4 c4 A4 | %18
w: gen\- * * * *|tes: in e-|um gen- tes|spe- ra\- * *|bunt. Et|e- rit no- men|
 (d2 c2 =B2 A2 G4) F4 | G4 A4 G8 | A8 z8 | z4 F4 B4 G4 | c4 A4 F4 D4 | A4 A4 B8 | %24
w: e\- * * * * ius|be- ne- dic-|tum,|et e- rit|no- men e- ius|be- ne- dic-|
[M:3/2][Q:1/4=240] A8 B4 | A6 G2 F4 | E6 D2 ^C4 | D8 d4 | %28
w: tum in|sae- cu- la|sae- cu- lo-|rum, in|
[M:3/2][Q:1/4=240][Q:1/4=240][Q:1/4=240] c6 =B2 A4 | G6 F2 E4 | F8[Q:1/4=236] B4 | %31
w: sae- cu- la|sae- cu- lo-|rum, in|
[Q:1/4=229] A6[Q:1/4=223] G2[Q:1/4=219] F4 |[Q:1/4=212] E6[Q:1/4=206] D2[Q:1/4=202] ^C4 | %33
w: sae- cu- la|sae- cu- lo-|
[Q:1/4=200] D12 |] %34
w: rum.|
V:2
 z16 | (A,6 =B,2 C2 B,2 C2 D2 | E2 D2 C4) =B,4 E4 | D4 (D2 E2 F2 E2 F2 G2 | A2 G2 F4) E8 | %5
w: |Ra\- * * * * *|* * * dix Jes-|se, ra\- * * * * *|* * * dix|
[M:4/2] C16 | A,8 z4 A,4 | =B,8 C4 D4 | E4 F4 E4 D4 | C4 F4 E8 | D8 A,6 =B,2 | C4 D4 E6 F2 | %12
w: Jes-|se, qui|ex- ur- get|ju- di- ca- re|gen- tes, gen-|tes, qui ex-|ur- get ju- di-|
 G4 D4 E8 | ^F8 z4 C4 | E8 D6 G2- | G2 G2 E4 E8 | E4 C4 F4 D4 | G4 E4 (A2 G2 F2 E2 | D8) E4 F4 | %19
w: ca- re gen-|tes: in|e- um gen\-|* tes spe- ra-|bunt. Et e- rit|no- men e\- * * *|* ius be-|
 E4 (F6 ED E4) | F2 C2 F4 D4 G4 | E4 A4 (G2 F2 E2 D2) | C4 E4 D8 | (C8 G8) |[M:3/2] C8 F4 | %25
w: ne- dic\- * * *|tum, et e- rit no-|men e- ius * * *|* be- ne-|dic\- *|tum in|
 F6 E2 C4 | C6 A,2 A,4 | A,8 A4 |[M:3/2] A6 G2 E4 | E6 C2 C4 | C8 F4 | F6 E2 C4 | C6 A,2 A,4 | %33
w: sae- cu- la|sae- cu- lo-|rum, in|sae- cu- la|sae- cu- lo-|rum, in|sae- cu- la|sae- cu- lo-|
 A,12 |] %34
w: rum.|
V:3
 z8 (D6 E2 | F2 E2 F2 G2 A2 G2 F4) | E4 A4 G4 (E2 F2 | G2 A2 =B2 c2 d2 A2 d4) | c4 c8 =B4 | %5
w: Ra\- *||dix Jes- se, ra\- *||dix, ra- dix|
[M:4/2][K:treble-8] (A4 G2 F2 G8) | F4 D4 E4 ^F4 | G8 A4 =B4 | ^c4 d4 A4 B4 | A8 A8 | D8 E4 ^F4 | %11
w: Jes\- * * *|se, qui ex- ur-|get ju- di-|ca- re gen- tes,|gen- tes,|qui ex- ur-|
 G4 A4 =B4 c4 | d4 (d6 ^c2 c4) | d8 z4 A4 | c4 c8 =B4 | d4 c4 =B8 | A8 F4 _B4 | G4 c4 A4 (d2 c2 | %18
w: get ju- di- ca-|re gen * *|tes: in|e- um gen-|tes spe- ra-|bunt. Et e-|rit no- men e\- *|
 =B2 A2 G4) c4 d4 | c8 c8 | A4 z2 F2 B4 G4 | c4 A4 d4 =B4 | e4 c4 (d2 e2 f2 d2 | e2 c2 f8 e4) | %24
w: * * * ius be-|ne- dic-|tum, et e- rit|no- men e- ius|be- ne- dic\- * * *||
[M:3/2] f8 d4 | d6 =B2 A4 | G6 F2 E4 | F8 f4 |[M:3/2][K:treble-8] f6 d2 c4 | =B6 A2 G4 | A8 d4 | %31
w: tum in|sae- cu- la|sae- cu- lo-|rum, in|sae- cu- la|sae- cu- lo-|rum, in|
 d6 =B2 A4 | G6 F2 E4 | ^F12 |] %34
w: sae- cu- la|sae- cu- lo-|rum.|

